X:1
T:Title
%%score { ( 1 3 ) | ( 2 4 ) }
L:1/8
M:6/8
K:A
V:1 treble nm="Grand Piano"
V:3 treble 
V:2 bass 
V:4 bass 
V:1
 z3 z2[Q:1/4=95] [CE] | [CA]2 [CA] [EB]2 [EB] | .c3 z3 | [CEA]2 [CEA] D-[DF]G | %4
[M:5/8] [CA]-[CA]- [CA]3 |[M:1/8] [CE] |[M:3/4] [CA]2 [CA] [EB]2 [EB] | c2 A [A,DF]2 [DFB] | %8
 [CEA]2 [CEA]D- [DF][B,DG] |[M:5/8] [A,CA]-[A,CA]- [A,CA]3 |[M:1/8] [G,E] | %11
[M:3/4] [DGB]2 [DGB] [DGB]2 [CA] | [DGB]2 [CAc] [Gd]2 E/E/ | [Gd]2 [Gd][Ac] [GB][CA] | %14
 G3- [Ge]2 [Gd] | [Ac]2 [EAc][Ac] [Gd][EAe] | [FAe]2 [FAd][Fd] c[DFB] | [CEA]G AB cB | %18
[M:5/8] [CA]-[CA]- [CA]3 |[M:1/8] [CE] |[M:3/4] [CE]2 [CEA] [CEA]2 [A,CE] |[M:5/8] E2 B B2 | %22
[M:1/8] E |[M:3/4] [Cc][Ec] [Ec][Ec] [EB][EA] |[M:7/8] B2 e e3 [Gd] |[M:5/8] [Ac]2 [EAc] [Ac][Gd] | %26
[M:1/8] [EAe] |[M:3/4] [FAe]2 [FAd][Fd] c[DFB] | A>G AB- B/c/B |[M:5/8] [CA]-[CA]- [CA]3 |] %30
V:2
 z3 z2 [A,,A,] | [A,,A,]2 [A,,A,] [E,G,]2 [E,G,] | A,2- [C,A,] D,2 B,, | E,2 E, z A,[E,B,D] | %4
[M:5/8] [A,,A,]-[A,,A,]- [A,,A,]3 |[M:1/8] [A,,A,] |[M:3/4] [A,,A,]2 [A,,A,] [E,G,]2 [E,G,] | %7
 A,4 z2 | E,2 .E,2 A,E, |[M:5/8] A,,-A,,- A,,3 |[M:1/8] E, |[M:3/4] E,2 E, E,2 E, | %12
 E,2 E, [E,B,]2 [E,G,]/[E,G,]/ | [E,B,]2 [E,B,][E,C] [E,D]E, | z2 z B,2 [E,B,] | %15
 [A,,A,]2 A,,A,, B,,C, | D,2 .D,2 ED, | z [B,D] [E,A,C][G,D] [A,E][E,G,D] | %18
[M:5/8] [A,,A,]-[A,,A,]- [A,,A,]3 |[M:1/8] [A,,A,] |[M:3/4] [A,,A,]2 A,, A,,2 A,, | %21
[M:5/8] [E,G,B,]2 [E,G,D] [E,G,D]2 |[M:1/8] [E,G,D] | %23
[M:3/4] [A,,A,][A,,A,] [A,,A,][A,,A,] [B,,G,][C,A,] |[M:7/8] [G,E]2 [B,G] [B,G]3 [E,B,] | %25
[M:5/8] [A,,A,]2 A,, A,,B,, |[M:1/8] C, |[M:3/4] D,2 .D,2 ED, | %28
 [E,CE]>[E,B,D] [E,A,C][E,G,D]- [E,G,D]/[E,A,E]/[E,G,D] |[M:5/8] [A,,A,]-[A,,A,]- [A,,A,]3 |] %30
V:3
 x6 | x6 | E2- [EA] [A,DF]2 [DFB] | z3 .[B,G]3 |[M:5/8] x5 |[M:1/8] x |[M:3/4] x6 | E4 z2 | %8
 z2 z [B,G] z2 |[M:5/8] x5 |[M:1/8] x |[M:3/4] x6 | x6 | x6 | [EB]4 z2 | z2 z .E3 | z2 z .A3 | x6 | %18
[M:5/8] x5 |[M:1/8] x |[M:3/4] x6 |[M:5/8] x5 |[M:1/8] x |[M:3/4] x6 |[M:7/8] x7 |[M:5/8] z z2 E2 | %26
[M:1/8] x |[M:3/4] z2 z .A3 | x6 |[M:5/8] x5 |] %30
V:4
 x6 | x6 | .A,,3 z3 | z3 .E,3 |[M:5/8] x5 |[M:1/8] x |[M:3/4] x6 | A,,2 C, D,2 B,, | z2 z .E,3 | %9
[M:5/8] x5 |[M:1/8] x |[M:3/4] x6 | x6 | x6 | E,6 | x6 | z2 z .D,3 | E,2 z .E,3 |[M:5/8] x5 | %19
[M:1/8] x |[M:3/4] x6 |[M:5/8] x5 |[M:1/8] x |[M:3/4] x6 |[M:7/8] E,-E,-E,- E,3 z |[M:5/8] x5 | %26
[M:1/8] x |[M:3/4] z2 z .D,3 | x6 |[M:5/8] x5 |] %30

